X:199
T:My Love Is In America
R:reel
M:4/4
L:1/8
K:Dmaj
|:F2 FG AB=cB|Addc AddA|FEFG AB=cA|GBAG FDDE|
F3 G AB=cB|Addc defg|afge dfed|cAGE FD D2:|
|:fdeg fdec|Addc Addg|fdeg fdec|GBAG FDDg|
fdeg fdec|Addc defg|afge dfed|cAGE FD D2:|

